lib/logo_updates/nrk-logo-nrk-sapmi-with-bg.svg

<svg width="341" height="84" viewBox="0 0 341 84" fill="none" xmlns="http://www.w3.org/2000/svg">
<rect width="341" height="84" fill="#114F9D"/>
<path d="M20 63V21.0038H33.7802V63H20ZM52.5283 27.6877L60.4532 63H45.3721L35.9092 21.0038H44.3676C46.3072 20.9786 48.1892 21.6624 49.6607 22.9264C51.1347 24.1373 52.1473 25.8184 52.5283 27.6877ZM62.5233 63V21.0038H76.3035V63H62.5233ZM86.7116 36.9743C85.2267 36.9888 83.7656 36.6003 82.4839 35.8504C81.2193 35.1194 80.1688 34.0689 79.438 32.8041C78.6872 31.5222 78.2986 30.0607 78.3134 28.5751C78.2964 27.0986 78.6853 25.6458 79.438 24.3755C80.1766 23.1245 81.2259 22.0853 82.4839 21.3588C83.766 20.6098 85.2269 20.2213 86.7116 20.2348C88.1877 20.2189 89.6399 20.6078 90.9108 21.3588C92.1562 22.0917 93.1943 23.13 93.9271 24.3755C94.6789 25.6462 95.0677 27.0987 95.0517 28.5751C95.0655 30.0605 94.6769 31.5218 93.9271 32.8041C93.202 34.0633 92.1627 35.113 90.9108 35.8504C89.6398 36.6029 88.1866 36.9918 86.7097 36.9743H86.7116ZM97.1807 63V21.0038H110.962V63H97.1807ZM128.408 43.9538C128.447 43.9946 128.742 44.4776 129.295 45.403C129.848 46.3283 130.567 47.5114 131.454 48.952C132.341 50.392 133.277 51.9199 134.262 53.536C135.247 55.1521 136.174 56.6803 137.043 58.1202C137.908 59.5602 138.894 61.1867 140 63H124.859C123.912 61.4621 123.055 60.0721 122.286 58.83C121.517 57.5878 120.7 56.2471 119.833 54.8077C118.965 53.3698 118.107 51.9699 117.259 50.6081C116.41 49.2464 115.681 48.0536 115.071 47.0297C114.459 46.0051 114.035 45.3149 113.799 44.9594C113.214 44.0771 112.868 43.058 112.794 42.0019C112.853 40.9883 113.179 40.0084 113.74 39.1619C113.976 38.7676 114.41 38.0675 115.041 37.062C115.672 36.0564 116.411 34.8637 117.259 33.4835C118.106 32.1034 118.965 30.6936 119.833 29.2543C120.702 27.815 121.519 26.4643 122.286 25.2025C123.056 23.9419 123.914 22.5421 124.859 21.0029H140L128.289 40.1082C127.926 40.6755 127.722 41.3292 127.697 42.0019C127.736 42.7081 127.983 43.3871 128.406 43.9538H128.408Z" fill="white"/>
<path d="M181.518 43.3106C180.664 42.43 179.675 41.6972 178.588 41.1415C177.448 40.5566 176.262 40.0696 175.042 39.6856C173.791 39.2894 172.502 38.9524 171.175 38.6744C170.158 38.4374 169.21 38.2 168.333 37.9623C167.526 37.7512 166.741 37.4623 165.988 37.0997C165.342 36.7892 164.741 36.3893 164.202 35.9112C163.695 35.4579 163.303 34.8875 163.058 34.2482C162.788 33.4964 162.659 32.7 162.678 31.9C162.664 31.0716 162.793 30.2472 163.058 29.4636C163.299 28.7723 163.701 28.1503 164.23 27.651C164.779 27.1416 165.402 26.7211 166.077 26.4042C166.849 26.0475 167.668 25.8071 168.508 25.691C169.508 25.5465 170.517 25.4771 171.527 25.483C172.447 25.4848 173.366 25.5341 174.28 25.6306C175.206 25.7286 176.126 25.8777 177.036 26.0773C177.919 26.2716 178.789 26.5197 179.643 26.8201C180.442 27.0988 181.217 27.4465 181.958 27.8591L182.778 22.6306C181.945 22.1898 181.072 21.8316 180.171 21.561C179.252 21.2843 178.324 21.0462 177.387 20.8468C176.438 20.648 175.48 20.4996 174.516 20.4022C173.539 20.3031 172.543 20.2536 171.527 20.2536C169.455 20.2309 167.388 20.4701 165.374 20.9657C163.659 21.3855 162.039 22.1321 160.599 23.1655C159.272 24.1306 158.204 25.4173 157.493 26.9082C156.735 28.5839 156.364 30.4133 156.409 32.2565C156.376 33.683 156.604 35.1033 157.083 36.445C157.503 37.5699 158.152 38.5927 158.987 39.447C159.813 40.2828 160.762 40.9843 161.8 41.5268C162.9 42.1018 164.047 42.5794 165.229 42.9541C166.459 43.3502 167.719 43.687 169.008 43.9643C170.063 44.2013 171.04 44.4489 171.938 44.7071C172.774 44.9405 173.587 45.2487 174.369 45.6281C175.042 45.9502 175.664 46.3707 176.216 46.8761C176.739 47.3747 177.149 47.9832 177.417 48.6589C177.728 49.473 177.877 50.3413 177.857 51.2141C177.872 52.1422 177.734 53.0663 177.447 53.9477C177.19 54.71 176.792 55.4158 176.275 56.0275C175.755 56.6305 175.116 57.1162 174.4 57.4528C173.59 57.8312 172.732 58.0915 171.85 58.2262C170.775 58.3937 169.687 58.4733 168.599 58.4641C167.541 58.4614 166.484 58.3918 165.435 58.256C164.341 58.1173 163.247 57.9289 162.152 57.6905C161.074 57.4577 160.009 57.1701 158.959 56.8289C157.923 56.4941 156.936 56.1477 156 55.7899L156.762 61.673C157.761 62.051 158.778 62.378 159.809 62.6526C160.745 62.9017 161.693 63.1001 162.65 63.2468C163.568 63.3848 164.487 63.4937 165.405 63.5736C166.324 63.6535 167.252 63.6931 168.188 63.6924C170.286 63.7056 172.379 63.4864 174.43 63.0387C176.245 62.6526 177.974 61.9272 179.527 60.8995C180.977 59.9266 182.149 58.5842 182.927 57.0071C183.782 55.139 184.193 53.0934 184.127 51.0348C184.159 49.5011 183.932 47.9733 183.454 46.5176C183.044 45.3194 182.384 44.2252 181.518 43.3106Z" fill="#9FDAF5"/>
<path d="M216.589 59.2959C216.161 59.3357 215.73 59.27 215.331 59.1045C214.933 58.939 214.581 58.6785 214.303 58.3451C213.76 57.3929 213.534 56.2883 213.659 55.1955L213.776 42.954C213.789 41.6706 213.631 40.3914 213.307 39.1508C213.023 38.0623 212.546 37.0351 211.9 36.1191C211.248 35.224 210.421 34.4754 209.47 33.9204C208.363 33.2844 207.168 32.8238 205.924 32.5546C204.404 32.2215 202.851 32.0621 201.295 32.0792C200.06 32.0782 198.827 32.1573 197.602 32.3159C196.445 32.4643 195.3 32.6929 194.174 33.0002C193.13 33.2871 192.103 33.6344 191.097 34.0402L190.394 39.0913C191.371 38.7357 192.3 38.4386 193.178 38.1999C194.056 37.9612 194.906 37.7641 195.727 37.6057C196.531 37.4501 197.344 37.3414 198.16 37.2799C198.959 37.2204 199.75 37.1903 200.532 37.1897C201.727 37.164 202.92 37.304 204.077 37.6057C204.922 37.8203 205.699 38.2501 206.335 38.8546C206.9 39.442 207.304 40.1693 207.506 40.9642C207.756 41.9439 207.875 42.9534 207.858 43.9652L207.851 45.4558L201.003 45.9262C198.66 45.9925 196.352 46.5167 194.205 47.4702C192.599 48.1832 191.212 49.3227 190.19 50.7684C189.324 52.0549 188.864 53.5782 188.872 55.1361C188.861 56.5982 189.214 58.0396 189.898 59.3266C190.615 60.6482 191.693 61.7313 193.003 62.4454C194.602 63.2887 196.388 63.6982 198.189 63.6339C199.876 63.6732 201.556 63.3913 203.141 62.803C204.511 62.2594 205.765 61.4522 206.833 60.426C207.239 60.0321 207.624 59.6166 207.986 59.181C208.1 59.7966 208.314 60.3884 208.621 60.9321C209.143 61.8418 209.946 62.5519 210.905 62.9525C211.966 63.3848 213.102 63.597 214.246 63.5765C214.598 63.5765 214.939 63.5656 215.271 63.5468C215.597 63.527 215.921 63.4769 216.238 63.3972C216.55 63.318 216.834 63.2497 217.088 63.1893C217.317 63.1379 217.543 63.0683 217.761 62.9812L218.406 59.0008C218.083 59.113 217.75 59.1926 217.411 59.2385C217.139 59.2745 216.864 59.2937 216.589 59.2959ZM206.832 56.6217C206.196 57.1312 205.509 57.5699 204.781 57.9301C204.055 58.2873 203.287 58.5471 202.495 58.7026C201.675 58.8626 200.841 58.9419 200.005 58.9394C199.05 58.9676 198.1 58.7851 197.222 58.4045C196.507 58.0904 195.903 57.5619 195.492 56.8901C195.087 56.1778 194.884 55.3652 194.907 54.5428C194.85 53.5516 195.118 52.5694 195.669 51.7489C196.307 50.9939 197.171 50.472 198.13 50.2633C199.627 49.9064 201.163 49.7469 202.7 49.7889H207.832L207.806 55.6868C207.508 56.0255 207.182 56.3389 206.832 56.6217Z" fill="#9FDAF5"/>
<path d="M210.553 17.936H204.225L199.244 28.5731H203.816L210.553 17.936Z" fill="#9FDAF5"/>
<path d="M246.504 33.951C244.4 32.6452 241.966 31.9943 239.501 32.0791C238.038 32.0865 236.582 32.2757 235.165 32.6426C233.633 33.0381 232.156 33.6274 230.77 34.3966C230.494 34.5482 230.222 34.7165 229.948 34.8869V32.1385L223.972 33.0893V75.5179H229.948V62.2135C229.988 62.2304 230.026 62.2492 230.067 62.2671C231.149 62.7225 232.28 63.0515 233.436 63.2476C234.801 63.476 236.183 63.5853 237.567 63.5744C240.205 63.6205 242.807 62.9426 245.096 61.6124C247.345 60.261 249.173 58.2945 250.37 55.9383C251.753 53.1285 252.427 50.0148 252.332 46.8759C252.388 44.2219 251.879 41.5871 250.839 39.1507C249.923 37.0274 248.416 35.2207 246.504 33.951ZM244.951 53.8287C244.247 55.4066 243.067 56.7172 241.581 57.5715C239.93 58.4489 238.083 58.879 236.22 58.8204C235.327 58.8211 234.435 58.7511 233.553 58.6114C232.627 58.462 231.716 58.2338 230.828 57.929C230.547 57.83 230.242 57.7171 229.949 57.6082V38.8545C230.027 38.8179 230.107 38.7703 230.185 38.7347C231.044 38.3385 231.845 38.0014 232.587 37.7235C233.29 37.4572 234.016 37.2583 234.756 37.1292C235.413 37.0144 236.079 36.9547 236.747 36.9509C238.554 36.8901 240.347 37.2885 241.963 38.1098C243.376 38.8898 244.482 40.1374 245.097 41.6445C245.843 43.5731 246.192 45.6357 246.124 47.7059C246.186 49.8098 245.785 51.9014 244.951 53.8287Z" fill="#9FDAF5"/>
<path d="M300.092 33.3271C298.494 32.4473 296.693 32.0165 294.876 32.0792C293.299 32.0749 291.733 32.3462 290.247 32.8814C288.737 33.4296 287.316 34.2002 286.027 35.1683C285.298 35.7171 284.603 36.3125 283.948 36.951C283.348 35.4632 282.289 34.2124 280.929 33.3855C279.312 32.5021 277.491 32.0717 275.655 32.1385C274.088 32.1388 272.533 32.4099 271.055 32.9399C269.539 33.4812 268.108 34.242 266.807 35.1989C266.386 35.5059 265.978 35.8397 265.576 36.1893V32.1425L259.599 33.0339V63.0436H265.576V40.4333C266.28 39.9654 267.014 39.5459 267.774 39.1775C268.703 38.7313 269.675 38.3825 270.674 38.1366C271.595 37.9067 272.539 37.7873 273.487 37.781C274.358 37.7539 275.225 37.9055 276.036 38.2266C276.707 38.515 277.3 38.9632 277.765 39.5331C278.274 40.1959 278.625 40.9691 278.79 41.7922C279.019 42.8555 279.127 43.9417 279.113 45.0298V63.0367H285.09V43.7819C285.094 42.6452 285.018 41.5097 284.863 40.3839C285.541 39.9331 286.243 39.5204 286.965 39.1478C287.879 38.6808 288.842 38.3219 289.837 38.0782C290.776 37.8442 291.74 37.7241 292.708 37.7205C293.569 37.6997 294.425 37.8515 295.228 38.1673C295.911 38.4493 296.515 38.8984 296.986 39.4746C297.495 40.1365 297.846 40.9096 298.011 41.7328C298.24 42.7964 298.348 43.883 298.333 44.9714V63.0367H304.311V43.7235C304.386 41.4761 304.028 39.2353 303.256 37.1273C302.648 35.5387 301.534 34.2015 300.092 33.3271Z" fill="#9FDAF5"/>
<path d="M313.159 63.0398H319.136V32.1386L313.159 33.03V63.0398Z" fill="#9FDAF5"/>
<path d="M319.722 21.1737C319.374 20.5642 318.881 20.0533 318.287 19.6881C317.678 19.3114 316.978 19.116 316.265 19.1245C315.543 19.1183 314.834 19.3133 314.214 19.6881C313.603 20.0509 313.089 20.5612 312.72 21.1737C312.348 21.7909 312.155 22.5017 312.163 23.2248C312.157 23.9567 312.35 24.6762 312.72 25.3047C313.077 25.9268 313.594 26.4399 314.214 26.7903C314.84 27.1475 315.547 27.332 316.265 27.3252C316.974 27.3344 317.672 27.1496 318.287 26.7903C318.89 26.4372 319.386 25.9234 319.722 25.3047C320.075 24.6701 320.256 23.953 320.25 23.2248C320.258 22.5055 320.076 21.7972 319.722 21.1737Z" fill="#9FDAF5"/>
</svg>

<svg xmlns="http://www.w3.org/2000/svg" viewBox="0 0 341 84"><path fill="#114F9D" d="M0 0h341v84H0z"/><path fill="#fff" d="M20 63V21.004h13.78V63H20Zm32.528-35.312L60.453 63h-15.08l-9.464-41.996h8.459a7.965 7.965 0 0 1 5.293 1.922 8.31 8.31 0 0 1 2.867 4.762ZM62.523 63V21.004h13.78V63h-13.78Zm24.189-26.026a8.213 8.213 0 0 1-4.228-1.124 8.336 8.336 0 0 1-3.046-3.046 8.206 8.206 0 0 1-1.125-4.229 8.056 8.056 0 0 1 1.125-4.2 8.437 8.437 0 0 1 3.046-3.016 8.233 8.233 0 0 1 4.228-1.124 8.083 8.083 0 0 1 4.199 1.124 8.504 8.504 0 0 1 3.016 3.016 8.075 8.075 0 0 1 1.125 4.2 8.226 8.226 0 0 1-1.125 4.23 8.4 8.4 0 0 1-3.016 3.045 8.059 8.059 0 0 1-4.201 1.124h.002ZM97.18 63V21.004h13.781V63H97.181Zm31.227-19.046c.039.04.334.524.887 1.449.553.925 1.272 2.108 2.159 3.549a1143.28 1143.28 0 0 1 5.589 9.168A854.89 854.89 0 0 0 140 63h-15.141c-.947-1.538-1.804-2.928-2.573-4.17a388.795 388.795 0 0 1-2.453-4.022 355.984 355.984 0 0 0-2.574-4.2 210.645 210.645 0 0 1-2.188-3.578 62.13 62.13 0 0 0-1.272-2.07 6.127 6.127 0 0 1-1.005-2.958 5.745 5.745 0 0 1 .946-2.84c.236-.394.67-1.094 1.301-2.1.631-1.006 1.37-2.198 2.218-3.578.847-1.38 1.706-2.79 2.574-4.23.869-1.439 1.686-2.79 2.453-4.052.77-1.26 1.628-2.66 2.573-4.2H140l-11.711 19.106a3.773 3.773 0 0 0-.592 1.894c.039.706.286 1.385.709 1.952h.002Z"/><path fill="#9FDAF5" d="M181.518 43.31a11.156 11.156 0 0 0-2.93-2.169 22.692 22.692 0 0 0-3.546-1.455 39.889 39.889 0 0 0-3.867-1.012 82.353 82.353 0 0 1-2.842-.712 12.97 12.97 0 0 1-2.345-.862 7.754 7.754 0 0 1-1.786-1.189 4.287 4.287 0 0 1-1.144-1.663 6.493 6.493 0 0 1-.38-2.348 7.226 7.226 0 0 1 .38-2.436 4.552 4.552 0 0 1 1.172-1.813 7.239 7.239 0 0 1 1.847-1.247 8.604 8.604 0 0 1 2.431-.713c1-.144 2.009-.214 3.019-.208.92.002 1.839.051 2.753.148.926.098 1.846.247 2.756.446a22.29 22.29 0 0 1 2.607.743c.799.279 1.574.627 2.315 1.04l.82-5.23a14.476 14.476 0 0 0-2.607-1.069 34.717 34.717 0 0 0-2.784-.714 27.467 27.467 0 0 0-2.871-.445 29.6 29.6 0 0 0-2.989-.148 24.62 24.62 0 0 0-6.153.712 13.829 13.829 0 0 0-4.775 2.2 9.889 9.889 0 0 0-3.106 3.742 12.255 12.255 0 0 0-1.084 5.349 11.657 11.657 0 0 0 .674 4.188 8.596 8.596 0 0 0 1.904 3.002 11.341 11.341 0 0 0 2.813 2.08c1.1.575 2.247 1.052 3.429 1.427 1.23.396 2.49.733 3.779 1.01 1.055.237 2.032.485 2.93.743a14.5 14.5 0 0 1 2.431.921 7.583 7.583 0 0 1 1.847 1.248 5.02 5.02 0 0 1 1.201 1.783 6.73 6.73 0 0 1 .44 2.555 8.392 8.392 0 0 1-.41 2.734 6.38 6.38 0 0 1-1.172 2.08 5.653 5.653 0 0 1-1.875 1.425 9.362 9.362 0 0 1-2.55.773 20.024 20.024 0 0 1-3.251.238 25.147 25.147 0 0 1-3.164-.208 37.734 37.734 0 0 1-3.283-.566 32.588 32.588 0 0 1-3.193-.861 59.775 59.775 0 0 1-2.959-1.04l.762 5.884a31.57 31.57 0 0 0 3.047.98c.936.249 1.884.447 2.841.594.918.138 1.837.247 2.755.327.919.08 1.847.12 2.783.118a28.428 28.428 0 0 0 6.242-.653 14.827 14.827 0 0 0 5.097-2.14 10.023 10.023 0 0 0 3.4-3.892 13.329 13.329 0 0 0 1.2-5.972 13.573 13.573 0 0 0-.673-4.517 8.812 8.812 0 0 0-1.936-3.207ZM216.589 59.296a2.642 2.642 0 0 1-1.258-.191 2.677 2.677 0 0 1-1.028-.76 5.175 5.175 0 0 1-.644-3.15l.117-12.241a14.473 14.473 0 0 0-.469-3.803 9.362 9.362 0 0 0-1.407-3.032 7.99 7.99 0 0 0-2.43-2.199 12.367 12.367 0 0 0-3.546-1.365 20.569 20.569 0 0 0-4.629-.476 28.575 28.575 0 0 0-3.693.237 25.19 25.19 0 0 0-3.428.684 28.199 28.199 0 0 0-3.077 1.04l-.703 5.051a35.08 35.08 0 0 1 2.784-.891 34.986 34.986 0 0 1 2.549-.594 21.192 21.192 0 0 1 2.433-.326c.799-.06 1.59-.09 2.372-.09a12.946 12.946 0 0 1 3.545.416 5.1 5.1 0 0 1 2.258 1.249 4.72 4.72 0 0 1 1.171 2.11c.25.979.369 1.988.352 3l-.007 1.49-6.848.471a18 18 0 0 0-6.798 1.544 9.782 9.782 0 0 0-4.015 3.298 7.753 7.753 0 0 0-1.318 4.368 8.791 8.791 0 0 0 1.026 4.19 7.765 7.765 0 0 0 3.105 3.12 10.323 10.323 0 0 0 5.186 1.188c1.687.04 3.367-.243 4.952-.831a11.397 11.397 0 0 0 3.692-2.377c.406-.394.791-.81 1.153-1.245.114.616.328 1.207.635 1.751a4.746 4.746 0 0 0 2.284 2.02 8.45 8.45 0 0 0 3.341.625c.352 0 .693-.011 1.025-.03.326-.02.65-.07.967-.15.312-.079.596-.147.85-.208.229-.051.455-.12.673-.208l.645-3.98a5.128 5.128 0 0 1-.995.238 6.677 6.677 0 0 1-.822.057Zm-9.757-2.674c-.636.51-1.323.948-2.051 1.308a9.186 9.186 0 0 1-2.286.773c-.82.16-1.654.239-2.49.236a6.513 6.513 0 0 1-2.783-.535 3.842 3.842 0 0 1-1.73-1.514 4.497 4.497 0 0 1-.585-2.347 4.545 4.545 0 0 1 .762-2.794 4.466 4.466 0 0 1 2.461-1.486 17.627 17.627 0 0 1 4.57-.474h5.132l-.026 5.898a7.973 7.973 0 0 1-.974.935ZM210.553 17.936h-6.328l-4.981 10.637h4.572l6.737-10.637ZM246.504 33.951a12.461 12.461 0 0 0-7.003-1.872 17.651 17.651 0 0 0-4.336.564 18.68 18.68 0 0 0-4.395 1.754c-.276.151-.548.32-.822.49v-2.748l-5.976.95v42.429h5.976V62.214c.04.016.078.035.119.053a15.27 15.27 0 0 0 3.369.98 23.89 23.89 0 0 0 4.131.327c2.638.047 5.24-.631 7.529-1.962a14.024 14.024 0 0 0 5.274-5.674 19.211 19.211 0 0 0 1.962-9.062 18.678 18.678 0 0 0-1.493-7.725 11.893 11.893 0 0 0-4.335-5.2Zm-1.553 19.878a8.136 8.136 0 0 1-3.37 3.742 10.704 10.704 0 0 1-5.361 1.25 16.473 16.473 0 0 1-5.392-.891 56.271 56.271 0 0 1-.879-.322V38.855c.078-.037.158-.085.236-.12a35.52 35.52 0 0 1 2.402-1.011 11.89 11.89 0 0 1 4.16-.773c1.807-.06 3.6.337 5.216 1.159a7.093 7.093 0 0 1 3.134 3.535 15.403 15.403 0 0 1 1.027 6.06 14.357 14.357 0 0 1-1.173 6.124ZM300.092 33.327a10.09 10.09 0 0 0-5.216-1.248 13.55 13.55 0 0 0-4.629.802 16.274 16.274 0 0 0-4.22 2.287 21.525 21.525 0 0 0-2.079 1.783 7.413 7.413 0 0 0-3.019-3.566 10.223 10.223 0 0 0-5.274-1.246c-1.567 0-3.122.27-4.6.8a16.58 16.58 0 0 0-4.248 2.26c-.421.307-.829.64-1.231.99v-4.047l-5.977.892v30.01h5.977v-22.61a18.73 18.73 0 0 1 2.198-1.256 14.955 14.955 0 0 1 2.9-1.041 11.94 11.94 0 0 1 2.813-.356 6.383 6.383 0 0 1 2.549.446 4.554 4.554 0 0 1 1.729 1.306c.509.663.86 1.436 1.025 2.26.229 1.063.337 2.149.323 3.237v18.007h5.977V43.782a24.287 24.287 0 0 0-.227-3.398 22.11 22.11 0 0 1 2.102-1.236 13.225 13.225 0 0 1 2.872-1.07 12.059 12.059 0 0 1 2.871-.358 6.456 6.456 0 0 1 2.52.447 4.48 4.48 0 0 1 1.758 1.308c.509.661.86 1.435 1.025 2.258.229 1.063.337 2.15.322 3.238v18.066h5.978V43.724a17.49 17.49 0 0 0-1.055-6.597 7.63 7.63 0 0 0-3.164-3.8ZM313.159 63.04h5.977V32.139l-5.977.891v30.01ZM319.722 21.174a4.167 4.167 0 0 0-1.435-1.486 3.756 3.756 0 0 0-2.022-.563 3.898 3.898 0 0 0-2.051.563 4.32 4.32 0 0 0-1.494 1.486 3.891 3.891 0 0 0-.557 2.05 4.036 4.036 0 0 0 .557 2.08 4.06 4.06 0 0 0 3.545 2.02 3.906 3.906 0 0 0 2.022-.534 3.847 3.847 0 0 0 1.435-1.485 4.207 4.207 0 0 0 .528-2.08 4.063 4.063 0 0 0-.528-2.051Z"/></svg>
